X: 1227
T: The Boys of Ballinchalla
M:C|
L:1/8
R:Reel
B:O'Neill's 1227
N:Collected by Dunlap
Z:Transcribed by Trish O'Neil
K:G
dc|B>G (3GGG BGdc|B>G (3GGGd2cB|c>A (3AAA cAeA|c>A (3AAAe2dc|
B>G (3GGG BGdc|B>G (3GGGd2cB|cedc BGAF|DGGFG2||
(BA)|Gggf gedB|Gggf gedB|Aaa^g aecB|Aaa^g aecA|
Gggf gedB|Gggf gfga|gfef gfeg|bgaf gedB||


